!!!COA:	Josquin des Prez
!!!CDT:	~1450-1521/08/27
!!!OTL:	Marguerite
!!!AGN:	Chanson
!!!SCT:	NJE 27.25
!!!SCA:	New Josquin Edition 27.25
!!!voices:	3
**kern	**kern	**kern
*staff3	*staff2	*staff1
*Ivox	*Ivox	*Ivox
*I"Contra	*I"Tenor	*I"Superius
*I'C	*I'T	*I'S
*clefGv2	*clefG2	*clefG2
*k[b-]	*k[b-]	*k[]
*M2/1	*M2/1	*M2/1
*met(C|)	*met(C|)	*met(C|)
[0D	1.d/	0r
.	2e/	.
=2	=2	=2
0D]	1.f/	1.a/
.	4e/	2b\
.	4d/	.
=3	=3	=3
1.A/	1.c/	1.cc\
2B-\	2d/	4b-i/
.	.	4a/
=4	=4	=4
1.c\	1e/	1.g/
.	1f/	.
4B-/	.	2a/
4A/	.	.
=5	=5	=5
1.G/	1.g/	1b\
.	.	1cc\
2A/	4f/	.
.	4e/	.
=6	=6	=6
1B-\	0d	1.dd\
1c\	.	.
.	.	4cc\
.	.	4b\
=7	=7	=7
1.d\	1r	0a
.	1f/	.
2c\	.	.
=8	=8	=8
1B-\	1g/	1r
1A/	1a/	1cc\
=9	=9	=9
2r	1d/	1dd\
2G/	.	.
2c\	2r	1ee\
2e\	2c/	.
=10	=10	=10
2d\	2.f/	1a/
1d\	.	.
.	4d/	.
.	2f/	2r
4c\	2g/	[2ee\
4B-\	.	.
=11	=11	=11
2c\	0a	4ee\]
.	.	4dd\
2.d\	.	2.ff\
4c\	.	4ee\
4B-\	.	4dd\
4A\	.	4cc\
=12	=12	=12
2G/	0b-	2.dd\
1A/	.	.
.	.	4cc\
.	.	1dd\
2G/	.	.
=13	=13	=13
1A/	2.a/	2.cc#\
.	4b-\	4dd\
1r	2cc\	2ee\
.	[2dd\	[2ff\
=14	=14	=14
2r	2dd\]	2ff\]
2c\	2cc\	2ee\
2f\	2a/	2ff\
[2e\	[2b-\	[2gg\
=15	=15	=15
4e\]	4b-/]	4gg\]
4c\	4a/	4ff\
2d\	4g/	4ee\
.	4f/	4dd\
1A/	1e/	2.cc#i\
.	.	8b\L
.	.	8cc#i\J
=16	=16	=16
2D/	[0d	0dd
2.G/	.	.
4A/	.	.
[2B-\	.	.
=17	=17	=17
4B-/]	0d]	0r
4A/	.	.
4G/	.	.
4F/	.	.
2G/	.	.
4F/	.	.
4E/	.	.
=18	=18	=18
1D/	0r	0a
1r	.	.
=19	=19	=19
2.E/	0r	1g/
4F/	.	.
2G/	.	1g/
2E/	.	.
=20	=20	=20
2D/	0a	1f/
2.d\	.	.
.	.	1d/
4e\	.	.
[2f\	.	.
=21	=21	=21
2f\]	1g/	0e
4e\	.	.
4d\	.	.
2.c\	1g/	.
4B-\	.	.
=22	=22	=22
1.d\	1f/	0d
.	1d/	.
4c\	.	.
4B-\	.	.
=23	=23	=23
1A/	0e	1r
1c\	.	1g/
=24	=24	=24
1r	0d	1a/
1G/	.	1b\
=25	=25	=25
1A/	1r	1cc\
1B-\	1g/	1dd\
=26	=26	=26
2A/	1a/	2cc\
4G/	.	1a/
4F/	.	.
1E/	1b-\	.
.	.	2g/
=27	=27	=27
2r	1cc\	1a/
1A/	.	.
.	1dd\	1b-i\
2G/	.	.
=28	=28	=28
1A/	1cc\	2a/
.	.	1f/
[1d\	[1ff\	.
.	.	[2b-i\
=29	=29	=29
2d\]	2ff\]	4b-/]
.	.	4a/
4c\	2ee\	4g/
4B-\	.	4f/
1c\	2ee\	1g/
.	2dd\	.
=30	=30	=30
1.d\	0ff	1r
.	.	[1d/
2c\	.	.
=31	=31	=31
1B-\	1dd\	1d/]
1A/	1ee\	1c/
=32	=32	=32
2F/	2a/	1d/
2G/	2.dd\	.
2A/	.	[1f/
.	4cc\	.
[2B-\	[2dd\	.
=33	=33	=33
4B-/]	4dd\]	1f/]
4A/	4cc\	.
4G/	4b-\	.
4F/	4a\	.
1G/	1b-\	1e/
=34	=34	=34
1.F/	[0a;	[0f;
2D/	.	.
=35	=35	=35
0D;	0a]	0f]
=36	=36	=36
0r	0r	0r
=37	=37	=37
0D	1.a/	0f
.	2b-\	.
=38	=38	=38
0A	0cc	0e
=39	=39	=39
0B-	2dd\	0d
.	1ff\	.
.	4ee\	.
.	4dd\	.
=40	=40	=40
1.c\	1.ee\	0g
4B-/	4dd\	.
4A/	4cc\	.
=41	=41	=41
0G	0b-	1.g/
.	.	4f/
.	.	4g/
=42	=42	=42
0F	1a/	0a
.	[1ff\	.
=43	=43	=43
1r	2ff\]	1d/
.	2ee\	.
1c\	[1ee\	[1g/
=44	=44	=44
1c\	2ee\]	1g/]
.	2dd\	.
1d\	[1dd\	1f/
=45	=45	=45
0A	1dd\]	0e
.	1cc#i\	.
=46	=46	=46
2D/	0dd	1d/
2.G/	.	.
.	.	1f/
4F/	.	.
2D/	.	.
=47	=47	=47
0A	1cc\	1e/
.	1a/	[1a/
=48	=48	=48
1r	0b-	2a/]
.	.	2g/
1E/	.	2g/
.	.	2f/
=49	=49	=49
2F/	2a/	0a
2.A/	2.cc\	.
4B-\	4b-\	.
2c\	2a/	.
=50	=50	=50
4d\	4b-/	1r
4c\	4a/	.
4B-\	4g/	.
4A\	4f/	.
1B-\	1g/	1dd\
=51	=51	=51
0A	0a	1cc\
.	.	[1a/
=52	=52	=52
0D	1r	2a/]
.	.	2b\
.	1f/	2cc\
.	.	2dd\
=53	=53	=53
0r	1e/	1ee\
.	1d/	[1ff\
=54	=54	=54
1.d\	1f/	1ff\]
.	1g/	2ee\
4c\	.	2dd\
4B-\	.	.
=55	=55	=55
[0A	1.a/	0cc#
.	4g/	.
.	4f/	.
=56	=56	=56
0A_	2e/	1r
.	2f/	.
.	2e/	[1cc#i\
.	[2a/	.
=57	=57	=57
0A]	2a/]	2cc#\]
.	4g/	2b\
.	4f/	.
.	2g/	1cc#i\
.	2a/	.
=58	=58	=58
1B-\	1d/	1dd\
2c\	1r	2ee\
[2d\	.	[2ff\
=59	=59	=59
4d\]	2.f/	4ff\]
4e\	.	4ee\
2.f\	.	2.dd\
.	4g/	.
.	2a/	.
4e\	.	4cc\
[2c\	[2g/	[2ee\
=60	=60	=60
2c\]	4g/]	4ee\]
.	4f/	4dd\
2d\	2d/	4cc#i\
.	.	4b\
1A/	1e/	1cc#i\
=61	=61	=61
2r	0d	1.dd\
1B-\	.	.
4A/	.	4cc\
4G/	.	4b-i\
=62	=62	=62
2F/	1d/	2a/
2.G/	.	1b-i\
.	2g/	.
4F/	.	.
[2D/	[2f/	[2a/
=63	=63	=63
4D/]	4f/]	2a/]
4E/	4e/	.
4F/	1d/	4g/
4G/	.	4f/
1A/	.	1e/
.	2c/	.
=64	=64	=64
1D/	2d/	2f/
.	1a/	2d/
2d\	.	2f/
2B-\	2b-\	2g/
=65	=65	=65
2.A/	2.cc\	1a/
4B-\	4dd\	.
2c\	2ee\	2g/
[2F/	[2ff\	[2a/
=66	=66	=66
2F/]	2ff\]	2a/]
2G/	4ee\	4g/
.	4dd\	4f/
1A/	2cc#i\	1e/
.	4bni\	.
.	4cc#i\	.
=67	=67	=67
0Dl	0ddl	0dl
==	==	==
*-	*-	*-
!!!RDF**kern: l=long note in original notation
!!!RDF**kern: i=editorial accidental
!!!RDF**kern: V=start of tuplet marker
!!!RDF**kern: Z=end of tuplet marker
!!!ENC:	Megan K. Eagen 05/28/2012
!!!END:	2012/06/04/
!!!EED:	Jesse Rodin
!!!EEV:	2012/06/21/
!!attribution-level@Jos: 4 (questionable)
!!!ONB:	Translated from MusicXML and edited on 2012/06/21/ by Craig Sapp
!!muse2ps: C^@{COA}?\n@{SCT}^i2I150v85,85,150Q16
